!!!COM: Bach, Johann Sebastian
!!!OTL: 46. Vom Himmel hoch, da komm' ich her
!!!ONM: No. 46
!!!OCL: Erk
!!!SCA: BWV 248.9
!!!YOE: Riemenschneider, Albert
!!!OPR: 371 Harmonized Chorales and 69 Chorale Melodies with Figured Bass
!!!OPT: Bach Chorale Harmonizations
!!!ONB: From the end of the "Christmas Oratorio"
**harm	**root	**kern	**kern	**kern	**kern
!	!	!bass	!tenor	!alto	!sprno
*Iorgan	*Iorgan	*Iorgan	*Iorgan	*Iorgan	*Iorgan
*k[]	*k[]	*k[]	*k[]	*k[]	*k[]
*G#:	*G#:	*G#:	*G#:	*G#:	*G#:
*met(c)	*met(c)	*met(c)	*met(c)	*met(c)	*met(c)
*M4/4	*M4/4	*M4/4	*M4/4	*M4/4	*M4/4
*MM60	*MM60	*MM60	*MM60	*MM60	*MM60
I	4DD	4G#	4b#	4dd#	4gg#
=1	=1	=1	=1	=1	=1
V	4AA	4.d#	4a#	8dd#	4ff##
.	.	.	.	8cc##	.
vi7d	4BB	.	4g#	4b#	4ee#
.	.	8c##	.	.	.
V	4AA	8d#	4f##	4a#	4ff##
.	.	8c#	.	.	.
Ib	4DD	4B#	8g#	8b#	4dd#
.	.	.	8f##	8a#	.
=2	=2	=2	=2	=2	=2
IV	4GG	8c#	8e#	4g#	4ee#
.	.	8B#	8d#	.	.
viib	4CC#	4A#	4c#	4a#	4ff##
I;	4DD;	4G#;	4d#;	4b#;	4gg#;
I	4DD	8G#	4d#	8b#	4gg#
.	.	8A#	.	8cc#	.
=3	=3	=3	=3	=3	=3
Ib	4DD	4B#	4g#	8dd#	4gg#
.	.	.	.	8cc#	.
Ib	4DD	8B#	4g#	4b#	4dd#
.	.	8c#	.	.	.
V	4AA	4d#	4f##	4a#	4dd#
V7c/IV	8DD	8d#	8f#	4g#	8b#
IV	8GG	8c#	8e#	.	8cc#
=4	=4	=4	=4	=4	=4
Ib	4DD	8B#	4d#	4g#	4dd#
.	.	8A#	.	.	.
V7b	4AA	8G#	4d#	4a#	4cc#
.	.	8F##y	.	.	.
I;	4DD;	4G#;	4d#;	4g#;	4b#;
I	4DD	4G#	4d#	8g#	4b#
.	.	.	.	8a#	.
=5	=5	=5	=5	=5	=5
!!linebreak: 2
V7b/ii	4BB	4G##	4d#	4b#	4ee#
II	4EE	8A#	4c##	4a#	4ee#
.	.	8G#	.	.	.
Vb	8AA	8F##	8d#	8a#	8dd#
viib/V	8GG#	8E#	8g#	8cc##	8ee#
V	4AA	4D#	8f##	4dd#	4ff##
.	.	.	8e#	.	.
=6	=6	=6	=6	=6	=6
Ib	8DD	8B#	8d#	4.dd#	8gg#
Vb	8AA	8A#	8f##	.	8ff##
vii7b	8CC#	8G#	8b#	.	4ee#
V/V	8EE	8A#	8a#	8cc##	.
V;	4AA;	4D#;	4f##;	4a#;	4dd#;
vi	8BB	8e#	8g#	8b#	4gg#
V7/V	8EE	8A#	[8e#	8a#	.
=7	=7	=7	=7	=7	=7
V	8AA	4d#	8e#]	8a#	4ff##
iiib	8FF#	.	8d#	[8b#	.
vi7b	8BB	8G#	8d#	8b#]	4ee#
iib	8EE	[8c#	8c#	8a#	.
V7d	8AA	8c#]	4d#	8f##	4dd#
Ib	8DD	8B#	.	8g#	.
IV	8GG	8c#	8c#	8e#	8ee#
iii	8FF#	8d#	8B#	8f##	8dd#
=8	=8	=8	=8	=8	=8
IVb	4GG	8e#	4G#	4.g#	8cc#
.	.	8c#	.	.	8b#
V	8AA	8d#	8d#	.	4a#
V7	8AA	8D#	8c#	8f##	.
I;	4DD;	4G#;	4B#;	4d#;	4g#;
==	==	==	==	==	==
*-	*-	*-	*-	*-	*-
!!!CDT: 1685/3//-1750/7/28
!!!OCY: Deutschland
!!!AGN: chorale
!!!AST: Baroque
!!!AIN: vox
!!!YOY: 1941
!!!PPP: New York; London
!!!PPR: G. Schirmer
!!!ENC: David Huron
!!!EED: David Huron
!!!YEN: United States of America
!!!YER: 1992
!!!YEC: Copyright 1992 David Huron
!!!YEM: Rights to all derivative electronic formats reserved.
!!!YER: March 20, 1996
!!!AMT: simple quadruple
!!!EEV: 1.1
!!chor2scor: -l 2 -s 0.6 -o %b.pmx
